!!!COM:	Martini, Johannes
!!!CDT:	~1440///-~1497//
!!!OPR:	Missa Dio te salvi Gotterello
!!!ONM:	3
!!!OTL:	Credo
!!!AGN:	Mass; Credo
!!!SCT:	Mar1004c
!!!SCA:	Mar1004c
!!!voices:	4
!!!voices-OPR:	4
**kern	**kern	**kern	**kern
*staff4	*staff3	*staff2	*staff1
*Ivox	*Ivox	*Ivox	*Ivox
*I"Bassus	*I"Tenor	*I"Contra	*I"Superius
*I'B	*I'T	*I'C	*I'S
*>[A,B]	*>[A,B]	*>[A,B]	*>[A,B]
*>A	*>A	*>A	*>A
*clefF4	*clefGv2	*clefGv2	*clefG2
*k[]	*k[]	*k[]	*k[]
*M2/1	*M2/1	*M2/1	*M2/1
*met(C)	*met(C)	*met(C)	*met(C)
=1-	=1-	=1-	=1-
!!section: Patrem omnipotentem
!!!OMD: Patrem omnipotentem
1A	0r	0r	1a
2F\	.	.	2a/
2F\	.	.	[2a/
=2	=2	=2	=2
2F\	1r	0r	2a/]
2E\	.	.	2g/
2.D\	1A	.	2f/
.	.	.	2f/
4C/	.	.	.
=3	=3	=3	=3
1AA	2A/	1e	1e
.	2A/	.	.
2AA/	2A/	2e\	1r
2C/	2G/	[2e\	.
=4	=4	=4	=4
2D\	2F/	2e\]	0r
2D\	2F/	2d\	.
2AA/	2E/	2c\	.
2AA/	[2A/	2c\	.
=5	=5	=5	=5
1E	2A/]	1B	0r
.	2G/	.	.
2AA/	2A/	2A/	.
2r	4G/	[2d\	.
.	4F/	.	.
=6	=6	=6	=6
1r	1E	2d\]	1e
.	.	2c\	.
1D	1D	2d\	[1f
.	.	4c\	.
.	.	4B\	.
=7	=7	=7	=7
1D	1r	1A	1f]
2G\	1E	2G/	1g
2G\	.	2r	.
=8	=8	=8	=8
1D	0F	2d\	0a
.	.	2.f\	.
2D\	.	.	.
.	.	4e\	.
2D\	.	[2d\	.
=9	=9	=9	=9
1E	1G	2d\]	1g
.	.	2c#i\	.
1D	1A	1d	1f
=10	=10	=10	=10
2E\	1.G	2B\	1.e
1C	.	1c	.
2D\	2F/	[2A/	2d/
=11	=11	=11	=11
2BB/	1D	2A/]	1.d
2BB/	.	2G/	.
[1AA	[1E	[1A	.
.	.	.	4c#i/
.	.	.	4B/
=12	=12	=12	=12
1AA]	2E/]	1A]	1c#i
.	2E/	.	.
2r	1D	1F	1d
[2D\	.	.	.
=13	=13	=13	=13
2D\]	1F	0r	0r
2D\	.	.	.
2C/	[1E	.	.
2AA/	.	.	.
=14	=14	=14	=14
2C/	2E/]	2r	0r
2D\	2F/	1d	.
1BB	1G	.	.
.	.	2d\	.
=15	=15	=15	=15
1AA	1A	2c\	1r
.	.	2A/	.
2E\	1r	2c\	2r
2F\	.	2d\	[2dd\
=16	=16	=16	=16
1G	0r	1B	2dd\]
.	.	.	2dd\
1A	.	2A/	2cc\
.	.	2e\	2a/
=17	=17	=17	=17
2F\	2r	2f\	2cc\
2D\	1d	2a\	2dd\
2G\	.	1g	1b
2G\	2d\	.	.
=18	=18	=18	=18
1A	2c\	1e	2a/
.	2A/	.	4g/
.	.	.	4f/
2A\	2c\	2e\	2e/
2D\	2d\	2f\	[2a/
=19	=19	=19	=19
2E\	1B	4g\	2a/]
.	.	4f\	.
2E\	.	4e\	2g#i/
.	.	4d\	.
1AA	1A	1c	1a
=20	=20	=20	=20
2A\	0r	2.A/	0r
2A\	.	.	.
.	.	4B\	.
2A\	.	2c\	.
[2G\	.	2d\	.
=21	=21	=21	=21
2G\]	0r	2e\	1r
2E\	.	2g\	.
1F	.	2f\	2a/
.	.	[2d\	2a/
=22	=22	=22	=22
2F\	0r	4d\]	2a/
.	.	4c\	.
1E	.	1e	1g
2C/	.	2e\	2e/
=23	=23	=23	=23
1D	2A/	1d	1f
.	2A/	.	.
2AA/	2A/	2c\	2f/
[2C/	[2G/	[2c\	[2e/
=24	=24	=24	=24
2C/]	2G/]	4c\]	2e/]
.	.	4d\	.
2C/	2E/	2e\	2e/
1D	1F	1d	1a
=25	=25	=25	=25
2AA/	2F/	2c\	2a/
1C	1E	1e	1g
2D\	2F/	2d\	2f/
=26	=26	=26	=26
1.AA	1A	1c	1.e
.	2A/	2c\	.
[2C/	[2G/	[2c\	[2e/
=27	=27	=27	=27
2C/]	2G/]	2c\]	2e/]
2BB/	2G/	2d\	2d/
2AA/	1A	2e\	2c/
2D\	.	2d\	[2f/
=28	=28	=28	=28
2E\	2G/	2B\	4f/]
.	.	.	4e/
2C/	2E/	2c\	1e
1D	1F	2A/	.
.	.	2B\	2d/
=29	=29	=29	=29
0AA	1E	0A	0e
.	1r	.	.
=30	=30	=30	=30
2E\	2G/	0r	0r
2E\	2G/	.	.
2F\	2A/	.	.
[2D\	4G/	.	.
.	4F/	.	.
=31	=31	=31	=31
2D\]	1E	2e\	2g/
2C/	.	2e\	2g/
2F\	1D	2f\	2a/
2G\	.	[2d\	4g/
.	.	.	4f/
=32	=32	=32	=32
1A	0r	2d\]	1e
.	.	2c#i\	.
1D	.	1d	1d
=33	=33	=33	=33
1.D	1.A	2d\	1.f
.	.	2d\	.
.	.	1d	.
2D\	2A/	.	2f/
=34	=34	=34	=34
1D	1A	2d\	1f
.	.	2d\	.
2D\	2A/	1d	2f/
2D\	2A/	.	2f/
=35	=35	=35	=35
1AA	1c	1r	1e
2D\	2d\	1d	2f/
2F\	2A/	.	[2a/
=36	=36	=36	=36
1E	1B	1e	2a/]
.	.	.	2g/
2AA/	1A	1c	2f/
[2C/	.	.	[2e/
=37	=37	=37	=37
2C/]	2G/	2c\	2e/]
2D\	2F/	2B\	1d
1AA	1E	2A/	.
.	.	2A/	2c#i/
=38	=38	=38	=38
1D	0D	1A	0d
[1F	.	2F/	.
.	.	[2A/	.
=39	=39	=39	=39
1F]	1D	2A/]	1f
.	.	2A/	.
1G	1C	1c	1e
=40	=40	=40	=40
1F	1D	1A	1f
[1C	[1E	2c\	[1g
.	.	2d\	.
=41	=41	=41	=41
1C]	1E]	1e	2g/]
.	.	.	4f/
.	.	.	4e/
1D	1F	2A/	1d
.	.	2B\	.
=42	=42	=42	=42
1AA	1E	2c\	1c
.	.	1A	.
[1BB-	[1D	.	[1d
.	.	2G/	.
=43	=43	=43	=43
1BB-]	1D]	2.G/	1d]
.	.	4F/	.
0AA	0E	0A	0c
=44	=44	=44	=44
*M3/1	*M3/1	*M3/1	*M3/1
*met(3)	*met(3)	*met(3)	*met(3)
!!primary-mensuration: met(C.)
!! Playing in menCDot tempo.
0.r	0.r	1c	1e
.	.	2d\	2f/
.	.	2A/	1a
.	.	2B\	.
.	.	2B\	2g#i/
=45	=45	=45	=45
1F	1A	1A	1a
2G\	2B\	1r	1r
2D\	1d	.	.
1E	.	1r	1r
.	2c#i\	.	.
=46	=46	=46	=46
1.D	1.d	1A	2.f/
.	.	.	4e/
.	.	2A/	2f/
2r	2r	2B\	1g
1r	1r	2c\	.
.	.	[2A/	2f/
=47	=47	=47	=47
1r	1r	2A/]	1e
.	.	1F	.
2r	2r	.	2d/
1AA	2.c\	1.E	1.e
.	4B\	.	.
2AA/	2c\	.	.
=48	=48	=48	=48
1BB	1d	0.r	0.r
2C/	2c\	.	.
2D\	1A	.	.
1BB	.	.	.
.	2G#i/	.	.
=49	=49	=49	=49
1.AA	1.A	2.c\	1e
.	.	4d\	.
.	.	2e\	2c/
2r	2r	1f	1d
1r	1r	.	.
.	.	2d\	2B/
=50	=50	=50	=50
2AA/	1A	2e\	2A/
2C/	.	2r	2r
2D\	2F/	1r	1r
2.E\	1G	.	.
.	.	1r	1r
4BB/	.	.	.
2C#i/	2E/	.	.
=51	=51	=51	=51
1D	2D/	1d	0a
.	2r	.	.
1F	1r	2c\	.
.	.	2d\	.
1E	1r	2e\	1g
.	.	2c\	.
=52	=52	=52	=52
0.D	0.d	1d	1f
.	.	2r	2b-i\
.	.	1A	2a/
.	.	.	2g/
.	.	2A/	2f/
=53	=53	=53	=53
1AA	2.c\	2.A/	1e
.	4d\	4G/	.
2C/	2e\	2E/	2a/
2D\	2d\	2F/	1a
1E	2c\	2G/	.
.	2B\	2E/	2g#i/
=54	=54	=54	=54
1AA	1A	2e\	[0.a
.	.	2.f\	.
1D	2D/	.	.
.	.	4e\	.
.	2F/	1d	.
1AA	1E	.	.
.	.	2c#i\	.
=55	=55	=55	=55
0.A	0.D	0.d	0.a]
=56	=56	=56	=56
*M2/1	*M2/1	*M2/1	*M2/1
*met(C)	*met(C)	*met(C)	*met(C)
!!section: Et incarnatus est
!!!OMD: Et incarnatus est
2.D\	0r	0r	0r
4D\	.	.	.
2D\	.	.	.
2C/	.	.	.
=57	=57	=57	=57
2D\	0r	0r	2.a/
4C/	.	.	.
4BB/	.	.	4a/
2AA/	.	.	2a/
2BB/	.	.	2g/
=58	=58	=58	=58
2AA/	2.A/	0r	2a/
2.C/	.	.	4g/
.	4A/	.	4f/
.	2A/	.	2e/
4D\	.	.	.
2E\	2G/	.	2r
=59	=59	=59	=59
2AA/	2A/	0r	2e/
2D\	4G/	.	2f/
.	4F/	.	.
2C/	2E/	.	2g/
2D\	2F/	.	4f/
.	.	.	4e/
=60	=60	=60	=60
2GG/	2G/	0r	1d
2.BB/	4F/	.	.
.	4E/	.	.
.	2D/	.	2r
4C/	.	.	.
[2D\	[2F/	.	2A/
=61	=61	=61	=61
2D\]	4F/]	0r	2B/
.	4G/	.	.
2C/	2A/	.	2c/
2BB/	2B\	.	2d/
2AA/	2c\	.	2e/
=62	=62	=62	=62
2D\	2d\	0r	2f/
1GG	2.B\	.	2.g/
.	4A/	.	4f/
2GG/	4G/	.	4e/
.	4F/	.	4d/
=63	=63	=63	=63
1AA	1E	0r	1c#i
2r	1D	.	2d/
2D\	.	.	2f/
=64	=64	=64	=64
2E\	0r	[0c	2g/
2.F\	.	.	2.a/
4G\	.	.	4b\
[2A\	.	.	[2cc\
=65	=65	=65	=65
4A\]	0r	1c]	4cc\]
4G\	.	.	4b\
2E\	.	.	2g/
1D	.	[1d	1f
=66	=66	=66	=66
0r	0r	0d]	2r
.	.	.	1a
.	.	.	[2b\
=67	=67	=67	=67
0r	0r	0e	2b\]
.	.	.	1a
.	.	.	2g#i/
=68	=68	=68	=68
2AA/	0r	0A	[0a
2C/	.	.	.
2D\	.	.	.
[2F\	.	.	.
=69	=69	=69	=69
2F\]	2A/	0r	0a_
2E\	2c\	.	.
2D\	2d\	.	.
4C/	[2f\	.	.
4BB/	.	.	.
=70	=70	=70	=70
1AA	2f\]	2A/	1a]
.	2e\	2c\	.
1D	2d\	2d\	1r
.	4c\	[2f\	.
.	4B\	.	.
=71	=71	=71	=71
0r	1A	2f\]	2A/
.	.	2e\	2c/
.	2r	2d\	2d/
.	[2D/	4c\	[2f/
.	.	4B\	.
=72	=72	=72	=72
2r	2D/]	1A	2f/]
2AA/	2C/	.	2e/
2BB/	2D/	1r	2d/
2C/	2E/	.	4c/
.	.	.	4B/
=73	=73	=73	=73
1D	1F	0r	2A/
.	.	.	1d
1BB	1G	.	.
.	.	.	2g/
=74	=74	=74	=74
2AA/	1A	0r	2f/
1C	.	.	1e
.	2G/	.	.
2D\	2F/	.	[2d/
=75	=75	=75	=75
1AA	1E	0r	2d/]
.	.	.	2c#i/
[1Dl	[1Dl	.	[1dl
=76	=76	=76	=76
0D]	0D]	0Al	0d]
!!LO:LB:i:g=z
=77||	=77||	=77||	=77||
*>B	*>B	*>B	*>B
*clefF4	*clefGv2	*clefGv2	*clefG2
*k[]	*k[]	*k[]	*k[]
*M2/1	*M2/1	*M2/1	*M2/1
*met(C)	*met(C)	*met(C)	*met(C)
!!section: Crucifixus
!!!OMD: Crucifixus
0r	0r	1d	0r
.	.	1d	.
=78	=78	=78	=78
0r	0r	1c	0r
.	.	1A	.
=79	=79	=79	=79
1D	0r	2B\	0r
.	.	2A/	.
1D	.	2G/	.
.	.	2F/	.
=80	=80	=80	=80
1C	0r	1E	0r
1AA	.	[1A	.
=81	=81	=81	=81
0BB	0r	2A/]	0r
.	.	4G#i/	.
.	.	4F#i/	.
.	.	1G#i	.
=82	=82	=82	=82
0AA	0r	1A	1a
.	.	1c	1a
=83	=83	=83	=83
1BB	0r	1d	1g
1C	.	1e	1e
=84	=84	=84	=84
1D	1A	1f	2d/
.	.	.	2.f/
1D	1A	1d	.
.	.	.	4e/
.	.	.	4d/
.	.	.	4c/
=85	=85	=85	=85
1E	1G	0r	1B
1C	1E	.	[1e
=86	=86	=86	=86
0D	1F	1A	2e/]
.	.	.	4d/
.	.	.	4c/
.	1F	1B	1d
=87	=87	=87	=87
0AA	0E	2A/	0e
.	.	1c	.
.	.	4B\	.
.	.	4A/	.
=88	=88	=88	=88
1C	1E	1G	0r
2C/	2E/	1r	.
[2D\	[2F/	.	.
=89	=89	=89	=89
2D\]	4F/]	0r	0r
.	4G/	.	.
2C/	2A/	.	.
1BB	2D/	.	.
.	[2G/	.	.
=90	=90	=90	=90
1AA	2G/]	0r	0r
.	2F#i/	.	.
1GG	1G	.	.
=91	=91	=91	=91
0r	0r	2.G/	1.g
.	.	4A/	.
.	.	2B\	.
.	.	2c\	4f/
.	.	.	4g/
=92	=92	=92	=92
0r	0r	2A/	1a
.	.	2.c\	.
.	.	.	2a/
.	.	4d\	.
.	.	[2e\	[2g/
=93	=93	=93	=93
0r	0r	4e\]	4g/]
.	.	4d\	4f/
.	.	4c\	4e/
.	.	4B\	4d/
.	.	2A/	1f
.	.	[2d\	.
=94	=94	=94	=94
0r	0r	2d\]	0e
.	.	4c#i\	.
.	.	4B\	.
.	.	1c#i	.
=95	=95	=95	=95
2.D\	1.d	0r	0r
4E\	.	.	.
2F\	.	.	.
2G\	4c\	.	.
.	4d\	.	.
=96	=96	=96	=96
2E\	1e	0r	0r
2.G\	.	.	.
.	2e\	.	.
4A\	.	.	.
[2B\	[2d\	.	.
=97	=97	=97	=97
4B\]	4d\]	0r	0r
4A\	4c\	.	.
4G\	4B\	.	.
4F\	4A/	.	.
2E\	1c	.	.
[2A\	.	.	.
=98	=98	=98	=98
2A\]	0B	0r	0r
4G#i\	.	.	.
4F#i\	.	.	.
1G#i	.	.	.
=99	=99	=99	=99
0r	0r	2.A/	1.a
.	.	4B\	.
.	.	2c\	.
.	.	[2d\	2a/
=100	=100	=100	=100
0r	0r	2d\]	1a
.	.	2c\	.
.	.	2d\	1b
.	.	2f\	.
=101	=101	=101	=101
0r	0r	2e\	2cc\
.	.	2.d\	2.b\
.	.	4c\	4a/
.	.	4B\	4g/
.	.	4A/	4f/
=102	=102	=102	=102
0r	0r	2c\	2e/
.	.	2d\	1a
.	.	1B	.
.	.	.	2g#i/
=103	=103	=103	=103
1AA	1r	1A	1a
1D	1A	1r	1r
=104	=104	=104	=104
2D\	1d	0r	0r
1D	.	.	.
.	2d\	.	.
2F\	[2d\	.	.
=105	=105	=105	=105
1E	2d\]	0r	0r
.	2c\	.	.
1D	2d\	.	.
.	4c\	.	.
.	4B\	.	.
=106	=106	=106	=106
2C/	1A	0r	0r
2D\	.	.	.
2E\	2G/	.	.
[2AA/	[2A/	.	.
=107	=107	=107	=107
2AA/]	4A/]	0r	0r
.	4G/	.	.
1D	2F/	.	.
.	1E	.	.
2C#i/	.	.	.
=108	=108	=108	=108
1D	1D	1r	1r
1D	1F	1A	1d
=109	=109	=109	=109
1.D	1.A	1.d	1.f
2D\	2A/	2d\	2f/
=110	=110	=110	=110
1D	1A	1d	1f
1D	1A	1d	1f
=111	=111	=111	=111
0AA	0A	0c	0e
=112	=112	=112	=112
1C	1G	1c	1e
1GG	1B	[1d	1g
=113	=113	=113	=113
1D	1A	1d]	1f
1E	[1G	1B	[1e
=114	=114	=114	=114
1C	1G]	1c	2e/]
.	.	.	2d/
1D	1F	[1A	[1d
=115	=115	=115	=115
0AA	0E	1A]	2d/]
.	.	.	4c#i/
.	.	.	4B/
.	.	1A	1c#i
=116	=116	=116	=116
1r	1D	0A	0d
[1D	1F	.	.
=117	=117	=117	=117
2D\]	2F/	0r	0r
2D\	2F/	.	.
1D	1F	.	.
=118	=118	=118	=118
1C	2E/	0r	0r
.	1G	.	.
1AA	.	.	.
.	2F#i/	.	.
=119	=119	=119	=119
2GG/	1G	0r	0r
2.BB/	.	.	.
.	[1d	.	.
4C/	.	.	.
[2D\	.	.	.
=120	=120	=120	=120
4D\]	2d\]	0r	0r
4C/	.	.	.
4BB/	2d\	.	.
4AA/	.	.	.
1GG	1d	.	.
=121	=121	=121	=121
1AA	1c	0r	0r
1C	1A	.	.
=122	=122	=122	=122
2BB/	2G/	1r	0r
2.D\	2.B\	.	.
.	.	[1d	.
4E\	4c\	.	.
[2F\	[2d\	.	.
=123	=123	=123	=123
4F\]	4d\]	2d\]	0r
4E\	4c\	.	.
4D\	4B\	2d\	.
4C/	4A/	.	.
1BB	1G#i	1d	.
=124	=124	=124	=124
0AA	1A	1c	0r
.	1c	1A	.
=125	=125	=125	=125
2.BB/	2B\	2G/	1r
.	1G	2.B\	.
4C/	.	.	.
1D	.	.	[1dd
.	.	4c\	.
.	2F/	[2d\	.
=126	=126	=126	=126
2GG/	2G/	4d\]	2dd\]
.	.	4c\	.
2AA/	4F/	4B\	2dd\
.	4E/	4A/	.
1BB	1D	1G	1dd
=127	=127	=127	=127
0AA	1E	1A	1cc
.	1F	1c	1a
=128	=128	=128	=128
0r	2G/	2B\	2g/
.	2D/	2.d\	2b\
.	2G/	.	2cc\
.	.	4e\	.
.	2F/	[2f\	[2dd\
=129	=129	=129	=129
0r	1A	4f\]	4dd\]
.	.	4e\	4cc\
.	.	4d\	4b\
.	.	4c\	4a/
.	1E	1B	1g#i
=130	=130	=130	=130
*M3/1	*M3/1	*M3/1	*M3/1
*met(3)	*met(3)	*met(3)	*met(3)
!! Played in real men3 tempo.
1.AA	0.r	0.e	0.a
2BB/	.	.	.
1C	.	.	.
=131	=131	=131	=131
1D	0.r	0d	0.r
1F	.	.	.
1G	.	1B	.
=132	=132	=132	=132
1A	0.r	0.c	0.a
0F	.	.	.
=133	=133	=133	=133
1G	0.r	0B	0g
0E	.	.	.
.	.	1c	1e
=134	=134	=134	=134
0.D	0.A	0.d	0f
.	.	.	1f
=135	=135	=135	=135
0.r	0G	0B	0e
.	1E	1G	1c
=136	=136	=136	=136
0.D	0F	1A	1.d
.	.	1.d	.
.	.	.	2e/
.	1F	.	1f
.	.	2c\	.
=137	=137	=137	=137
0C	1.E	1.e	1.g
.	2F/	2d\	2f/
1BB	1G	1B	2e/
.	.	.	2d/
=138	=138	=138	=138
0AA	0A	[0.c	1c
.	.	.	1.f
[1C	1G	.	.
.	.	.	2e/
=139	=139	=139	=139
1C]	1E	1c]	0e
0D	0F	1A	.
.	.	1B	1d
=140	=140	=140	=140
*M2/1	*M2/1	*M2/1	*M2/1
*met(C|)	*met(C|)	*met(C|)	*met(C|)
1C	0E	1c	0e
1G	.	2B\	.
.	.	[2e\	.
=141	=141	=141	=141
1A	0r	2e\]	0r
.	.	2c\	.
2B\	.	2d\	.
[2A\	.	[2f\	.
=142	=142	=142	=142
2A\]	1r	2f\]	0r
4G\	.	4e\	.
4F\	.	4d\	.
1E	1G	1c#i	.
=143	=143	=143	=143
1D	1A	0d	0r
2D\	2B\	.	.
[2F\	[2A/	.	.
=144	=144	=144	=144
2F\]	2A/]	0r	1r
4E\	2F/	.	.
4D\	.	.	.
1C	1E	.	1g
=145	=145	=145	=145
2r	1.D	0r	1a
2.F\	.	.	.
.	.	.	2b\
4G\	.	.	.
[2A\	[2F/	.	[2a/
=146	=146	=146	=146
2A\]	2F/]	0r	2a/]
2F\	4E/	.	2f/
.	4D/	.	.
1G	1C	.	1e
=147	=147	=147	=147
2.F\	1D	1d	2d/
.	.	.	2f/
4E\	.	.	.
1C	1r	1e	2g/
.	.	.	[2a/
=148	=148	=148	=148
2D\	0r	2f\	4a/]
.	.	.	4b\
2C/	.	1e	1cc
1AA	.	.	.
.	.	2c\	4b\
.	.	.	4a/
=149	=149	=149	=149
1E	0r	1B	1g#i
2AA/	.	1A	1a
[2D\	.	.	.
=150	=150	=150	=150
4D\]	0r	1d	0r
4E\	.	.	.
4F\	.	.	.
4G\	.	.	.
2E\	.	1c	.
2A\	.	.	.
=151	=151	=151	=151
1D	0r	1.d	0r
1r	.	.	.
.	.	4c\	.
.	.	4B\	.
=152	=152	=152	=152
1D	0r	1A	0r
1C	.	1e	.
=153	=153	=153	=153
1.D	0r	2d\	0r
.	.	1f	.
4C/	.	4e\	.
4BB/	.	4d\	.
=154	=154	=154	=154
1AA	0r	2c\	1a
.	.	2d\	.
1E	.	1B	1g
=155	=155	=155	=155
2D\	0r	2r	1.a
1F	.	1A	.
4E\	.	2B\	4g/
4D\	.	.	4f/
=156	=156	=156	=156
2C/	1A	2c\	1e
2D\	.	2A/	.
1BB	1G	1d	1r
=157	=157	=157	=157
1AA	1.A	2c\	1e
.	.	1e	.
1D	.	.	1f
.	4G/	2d\	.
.	4F/	.	.
=158	=158	=158	=158
1C	1E	1e	1g
1D	1F	2d\	2f/
.	.	2c\	2e/
=159	=159	=159	=159
0GG	1G	1B	1d
.	2F/	1c	1r
.	2E/	.	.
=160	=160	=160	=160
1r	1D	1d	1.a
1AA	1r	2c\	.
.	.	2B\	2g/
=161	=161	=161	=161
1D	0A	1A	1f
1AA	.	[1c	[1e
=162	=162	=162	=162
1C	1G	1c]	2e/]
.	.	.	2d/
1D	1F	1B	[1d
=163	=163	=163	=163
0AA	0E	0A	1d]
.	.	.	1c#i
=164	=164	=164	=164
0r	0D	1r	0d
.	.	1A	.
=165	=165	=165	=165
1D	0r	1B-i	0r
2D\	.	1A	.
[2C/	.	.	.
=166	=166	=166	=166
2C/]	0r	1G	0r
2C/	.	.	.
1D	.	2F/	.
.	.	[2B-i\	.
=167	=167	=167	=167
2D\	0r	2B-\]	0r
2C/	.	1A	.
1BB-i	.	.	.
.	.	2G/	.
=168	=168	=168	=168
0AA	0r	0A	1r
.	.	.	1a
=169	=169	=169	=169
0r	1d	1G	1b-i
.	2d\	1F	1a
.	[2c\	.	.
=170	=170	=170	=170
0r	2c\]	1E	1g
.	2c\	.	.
.	1d	2D/	2f/
.	.	[2G/	[2b-i\
=171	=171	=171	=171
0r	2d\	2G/]	2b-\]
.	2c\	2A/	1a
.	1B	1E	.
.	.	.	2g/
=172	=172	=172	=172
*M3/1	*M3/1	*M3/1	*M3/1
*met(3)	*met(3)	*met(3)	*met(3)
!! played in readl men3 tempo.
0.D	0.A	0F	0.a
.	.	1F	.
=173	=173	=173	=173
0.C	0.r	1G	0.r
.	.	1E	.
.	.	1A	.
=174	=174	=174	=174
0D	0d	0A	0f
1BB	1d	1G	1d
=175	=175	=175	=175
0.AA	0c	1.A	0e
.	.	2G/	.
.	1c	1E	1e
=176	=176	=176	=176
0.r	1.d	1D	1.f
.	.	1F	.
.	2c\	.	2e/
.	1B	1G	1d
=177	=177	=177	=177
0AA	0.A	1A	0c
.	.	1c	.
1D	.	1d	1r
=178	=178	=178	=178
1C	0.r	1e	0.r
1D	.	1.f	.
[1F	.	.	.
.	.	2e\	.
=179	=179	=179	=179
1F]	0.r	1.d	0.r
0E	.	.	.
.	.	4c#i\	.
.	.	4B\	.
.	.	1c#i	.
=180	=180	=180	=180
0.D	0d	0d	0a
.	1d	[1f	1b-i
=181	=181	=181	=181
1F	0c	1f]	1a
1C	.	0e	1.g
1E	1B	.	.
.	.	.	2f/
=182	=182	=182	=182
1F	1A	0.c	0f
0C	0G	.	.
.	.	.	1e
=183	=183	=183	=183
0.D	0.F	0.A	0f
.	.	.	1r
=184	=184	=184	=184
0C	0.r	1c	1.g
.	.	1e	.
.	.	.	2a/
1GG	.	1d	1b-i
=185	=185	=185	=185
1D	0.r	1.f	1.a
1AA	.	.	.
.	.	2e\	2g/
1BB	.	1d	1f
=186	=186	=186	=186
1C	1.G	0c	0e
1E	.	.	.
.	2A/	.	.
1D	1B-i	1r	1r
=187	=187	=187	=187
1.F	1.A	0.r	0.r
2E\	2G/	.	.
1D	1F	.	.
=188	=188	=188	=188
0C	0E	0c	1e
.	.	.	1g
1F	1r	1c	1a
=189	=189	=189	=189
1G	0.r	1B	0g
0D	.	0A	.
.	.	.	1f#i
=190	=190	=190	=190
1r	1E	0G	0g
0C	1G	.	.
.	1A	1r	1r
=191	=191	=191	=191
1BB	0G	0.r	0.r
0AA	.	.	.
.	1F#i	.	.
=192	=192	=192	=192
0GG	0G	1G	0g
.	.	1B	.
1AA	1r	1A	1f
=193	=193	=193	=193
1BB	0G	1d	1d
1C	.	1c	1.e
[1D	1F	1A	.
.	.	.	2d/
=194	=194	=194	=194
1D]	1D	1B	0d
0AA	0E	0A	.
.	.	.	1c#i
=195	=195	=195	=195
0.Dl	0.Dl	0.Al	0.dl
==	==	==	==
*-	*-	*-	*-
!!!RDF**kern: l=long note in original notation
!!!RDF**kern: i=editorial accidental
!!!ENC:	Chris Gage 01-22-2014
!!!END:	2015/03/07/
!!!EED:	Jesse Rodin
!!!EEV:	2015/03/09/
!!!ONB:	Translated from MusicXML and edited on 2015/03/09/ by Craig Sapp
!!muse2ps: T^@{OPR}^u^@{ONM}{. }@{OTL}^C^@{COM}^i2I150v85,85,85,150Q16
